X:1
L:1/8
Q:1/8=160
M:6/8
K:Emin
 F | G2 G G2 G | G2 G F2 F | E2 E F2 G | A2 G F2 B | B2 A G2 F | E2 E E2 ^d | e2 B B2 A | 
 G2 F E2 :| d | e3 fe^d | e^de B2 d | e2 g f2 e | d2 ^c B2 c | d3 A2 ^c | d3 A2 ^c | d2 =f e2 d | 
 c2 B A2 e | e2 d e2 c | d2 c d2 B | e2 g f2 e | d2 c B2 A | G2 G G2 G | F2 F F2 ^d | e^de B2 A | 
 G2 F E3 |]
